static/images/platforms/dotnet.svg

<svg width="150" height="150" viewBox="0 0 150 150" fill="none" xmlns="http://www.w3.org/2000/svg">
<g clip-path="url(#clip0_1704_7)">
<path d="M150 0H0V150H150V0Z" fill="#512BD4"/>
<path d="M26.7342 95.8333C25.6736 95.8333 24.7721 95.48 24.0297 94.7731C23.2872 94.0481 22.916 93.1872 22.916 92.1905C22.916 91.1754 23.2872 90.3057 24.0297 89.5807C24.7721 88.8557 25.6736 88.4932 26.7342 88.4932C27.8125 88.4932 28.7229 88.8557 29.4653 89.5807C30.2254 90.3057 30.6055 91.1754 30.6055 92.1905C30.6055 93.1872 30.2254 94.0481 29.4653 94.7731C28.7229 95.48 27.8125 95.8333 26.7342 95.8333Z" fill="white"/>
<path d="M69.1334 95.2352H62.2393L44.0765 66.5809C43.6169 65.8559 43.2367 65.1036 42.9363 64.3243H42.7771C42.9186 65.1582 42.9893 66.9434 42.9893 69.6799V95.2352H36.8906V56.25H44.2354L61.7887 84.2247C62.5311 85.3849 63.0084 86.1822 63.2206 86.6171H63.3265C63.1498 85.5842 63.0613 83.8352 63.0613 81.3701V56.25H69.1334V95.2352Z" fill="white"/>
<path d="M98.8311 95.2352H77.4863V56.25H97.9827V61.7418H83.7972V72.7793H96.8692V78.2437H83.7972V89.7707H98.8311V95.2352Z" fill="white"/>
<path d="M129.166 61.7418H118.242V95.2352H111.931V61.7418H101.033V56.25H129.166V61.7418Z" fill="white"/>
</g>
<defs>
<clipPath id="clip0_1704_7">
<rect width="150" height="150" fill="white"/>
</clipPath>
</defs>
</svg>

<svg xmlns="http://www.w3.org/2000/svg" width="150" height="150" fill="none"><g clip-path="url(#a)"><path fill="#512BD4" d="M150 0H0v150h150V0Z"/><path fill="#fff" d="M26.734 95.833c-1.06 0-1.962-.353-2.704-1.06-.743-.725-1.114-1.586-1.114-2.582 0-1.016.371-1.885 1.114-2.61.742-.725 1.644-1.088 2.704-1.088 1.078 0 1.989.363 2.731 1.088.76.725 1.14 1.594 1.14 2.61 0 .996-.38 1.857-1.14 2.582-.742.707-1.652 1.06-2.73 1.06Zm42.399-.598H62.24L44.077 66.581c-.46-.725-.84-1.477-1.14-2.257h-.16c.142.834.212 2.62.212 5.356v25.555h-6.098V56.25h7.344L61.79 84.225c.742 1.16 1.22 1.957 1.432 2.392h.106c-.177-1.033-.266-2.782-.266-5.247V56.25h6.072v38.985Zm29.698 0H77.486V56.25h20.497v5.492H83.797v11.037H96.87v5.465H83.797V89.77h15.034v5.464Zm30.335-33.493h-10.924v33.493h-6.311V61.742h-10.898V56.25h28.133v5.492Z"/></g><defs><clipPath id="a"><path fill="#fff" d="M0 0h150v150H0z"/></clipPath></defs></svg>
